static/cards/FrenchDeck/cyberwave/card_spades_08.svg

<svg xmlns="http://www.w3.org/2000/svg" width="822" height="1122" fill="none" viewBox="0 0 822 1122"><rect width="822" height="1122" fill="#1a0033" rx="20"/><g fill="#fff066" clip-path="url(#a)"><path d="M121.008 160.92q-15.616 0-24.448-6.528t-8.832-18.304q0-8.448 4.608-14.336 4.735-6.016 12.544-8.064-14.465-5.248-14.465-19.712 0-11.52 7.808-17.664 7.936-6.272 22.785-6.272 14.847 0 22.656 6.272 7.935 6.144 7.936 17.664 0 14.464-14.464 19.712 7.808 2.047 12.416 8.064 4.736 5.888 4.736 14.336 0 11.776-8.832 18.304t-24.448 6.528m0-50.176q11.775 0 17.792-3.84 6.144-3.84 6.144-12.928 0-9.6-5.888-13.824-5.889-4.224-18.048-4.224-12.16 0-18.048 4.224-5.889 4.224-5.888 13.824 0 9.088 6.016 12.928 6.144 3.84 17.92 3.84m0 44.288q13.44 0 19.968-4.608 6.656-4.736 6.656-14.336 0-19.328-26.624-19.328t-26.624 19.328q0 9.6 6.528 14.336 6.656 4.608 20.096 4.608M121.202 281.503c10.18 10.18 26.685 10.18 36.865 0s10.18-26.685 0-36.865l-33.179-33.179a5.213 5.213 0 0 0-7.373 0l-33.179 33.179.004.003c-9.814 10.207-9.692 26.436.365 36.493s26.287 10.179 36.493.365z"/><rect width="5" height="33" x="118.5" y="266" rx="2.5"/><path d="M692.992 957.08q15.616 0 24.448 6.528t8.832 18.304q0 8.448-4.608 14.336c-3.157 4.012-7.338 6.702-12.544 8.062q14.464 5.25 14.464 19.71 0 11.52-7.808 17.67-7.935 6.27-22.784 6.27-14.847 0-22.656-6.27-7.936-6.15-7.936-17.67 0-14.46 14.464-19.71c-5.205-1.36-9.344-4.05-12.416-8.062q-4.736-5.888-4.736-14.336 0-11.776 8.832-18.304t24.448-6.528m0 50.18q-11.775 0-17.792 3.84c-4.096 2.56-6.144 6.87-6.144 12.92q0 9.6 5.888 13.83c3.926 2.81 9.942 4.22 18.048 4.22 8.107 0 14.123-1.41 18.048-4.22q5.889-4.23 5.888-13.83c0-6.05-2.005-10.36-6.016-12.92q-6.144-3.84-17.92-3.84m0-44.292q-13.44 0-19.968 4.608-6.656 4.736-6.656 14.336 0 19.328 26.624 19.328t26.624-19.328q0-9.6-6.528-14.336-6.656-4.608-20.096-4.608M692.798 836.497c-10.18-10.18-26.685-10.18-36.865 0s-10.18 26.685 0 36.865l33.179 33.179a5.213 5.213 0 0 0 7.373 0l33.179-33.179-.004-.003c9.814-10.207 9.692-26.436-.365-36.493s-26.287-10.179-36.493-.365z"/><rect width="5" height="33" x="695.5" y="852" rx="2.5" transform="rotate(-180 695.5 852)"/></g><path stroke="#fff066" stroke-width="8" d="M445.739 577.674c-8.618 8.618-22.59 8.619-31.209.001l-2.777-2.777-2.827 2.718c-8.639 8.306-22.379 8.203-30.892-.31-8.514-8.514-8.617-22.254-.31-30.893l.137-.143 32.983-32.982a1.213 1.213 0 0 1 1.716-.001l33.179 33.179c8.618 8.618 8.618 22.59 0 31.208Z"/><rect width="5" height="33" x="409" y="565" fill="#fff066" rx="2.5"/><path stroke="#fff066" stroke-width="8" d="M361.739 739.674c-8.618 8.618-22.59 8.619-31.209.001l-2.777-2.777-2.827 2.718c-8.639 8.306-22.379 8.203-30.892-.31-8.514-8.514-8.617-22.254-.31-30.893l.137-.143 32.983-32.982a1.213 1.213 0 0 1 1.716-.001l33.179 33.179c8.618 8.618 8.618 22.59 0 31.208Z"/><rect width="5" height="33" x="325" y="727" fill="#fff066" rx="2.5"/><path stroke="#fff066" stroke-width="8" d="M528.739 739.674c-8.618 8.618-22.59 8.619-31.209.001l-2.777-2.777-2.827 2.718c-8.639 8.306-22.379 8.203-30.892-.31-8.514-8.514-8.617-22.254-.31-30.893l.137-.143 32.983-32.982a1.213 1.213 0 0 1 1.716-.001l33.179 33.179c8.618 8.618 8.618 22.59 0 31.208Z"/><rect width="5" height="33" x="492" y="727" fill="#fff066" rx="2.5"/><path stroke="#fff066" stroke-width="8" d="M613.739 577.674c-8.618 8.618-22.59 8.619-31.209.001l-2.777-2.777-2.827 2.718c-8.639 8.306-22.379 8.203-30.892-.31-8.514-8.514-8.617-22.254-.31-30.893l.137-.143 32.983-32.982a1.213 1.213 0 0 1 1.716-.001l33.179 33.179c8.618 8.618 8.618 22.59 0 31.208Z"/><rect width="5" height="33" x="577" y="565" fill="#fff066" rx="2.5"/><path stroke="#fff066" stroke-width="8" d="M277.739 577.674c-8.618 8.618-22.59 8.619-31.209.001l-2.777-2.777-2.827 2.718c-8.639 8.306-22.379 8.203-30.892-.31-8.514-8.514-8.617-22.254-.31-30.893l.137-.143 32.983-32.982a1.213 1.213 0 0 1 1.716-.001l33.179 33.179c8.618 8.618 8.618 22.59 0 31.208Z"/><rect width="5" height="33" x="241" y="565" fill="#fff066" rx="2.5"/><path stroke="#fff066" stroke-width="8" d="M613.739 415.674c-8.618 8.618-22.59 8.619-31.209.001l-2.777-2.777-2.827 2.718c-8.639 8.306-22.379 8.203-30.892-.31-8.514-8.514-8.617-22.254-.31-30.893l.137-.143 32.983-32.982a1.213 1.213 0 0 1 1.716-.001l33.179 33.179c8.618 8.618 8.618 22.59 0 31.208Z"/><rect width="5" height="33" x="577" y="403" fill="#fff066" rx="2.5"/><path stroke="#fff066" stroke-width="8" d="M277.739 415.674c-8.618 8.618-22.59 8.619-31.209.001l-2.777-2.777-2.827 2.718c-8.639 8.306-22.379 8.203-30.892-.31-8.514-8.514-8.617-22.254-.31-30.893l.137-.143 32.983-32.982a1.213 1.213 0 0 1 1.716-.001l33.179 33.179c8.618 8.618 8.618 22.59 0 31.208Z"/><rect width="5" height="33" x="241" y="403" fill="#fff066" rx="2.5"/><path stroke="#fff066" stroke-width="8" d="M445.739 415.674c-8.618 8.618-22.59 8.619-31.209.001l-2.777-2.777-2.827 2.718c-8.639 8.306-22.379 8.203-30.892-.31-8.514-8.514-8.617-22.254-.31-30.893l.137-.143 32.983-32.982a1.213 1.213 0 0 1 1.716-.001l33.179 33.179c8.618 8.618 8.618 22.59 0 31.208Z"/><rect width="5" height="33" x="409" y="403" fill="#fff066" rx="2.5"/><defs><clipPath id="a"><path fill="#fff" d="M46 48h722v1022H46z"/></clipPath></defs></svg>

<svg width="822" height="1122" viewBox="0 0 822 1122" fill="none" xmlns="http://www.w3.org/2000/svg">
<rect width="822" height="1122" rx="20" fill="#1A0033"/>
<g clip-path="url(#clip0_31_1693)">
<path d="M121.008 160.92C110.597 160.92 102.448 158.744 96.5595 154.392C90.6715 150.04 87.7275 143.939 87.7275 136.088C87.7275 130.456 89.2635 125.677 92.3355 121.752C95.4928 117.741 99.6742 115.053 104.88 113.688C95.2368 110.189 90.4155 103.619 90.4155 93.976C90.4155 86.296 93.0182 80.408 98.2235 76.312C103.514 72.1307 111.109 70.04 121.008 70.04C130.906 70.04 138.458 72.1307 143.664 76.312C148.954 80.408 151.6 86.296 151.6 93.976C151.6 103.619 146.778 110.189 137.136 113.688C142.341 115.053 146.48 117.741 149.552 121.752C152.709 125.677 154.288 130.456 154.288 136.088C154.288 143.939 151.344 150.04 145.456 154.392C139.568 158.744 131.418 160.92 121.008 160.92ZM121.008 110.744C128.858 110.744 134.789 109.464 138.8 106.904C142.896 104.344 144.944 100.035 144.944 93.976C144.944 87.576 142.981 82.968 139.056 80.152C135.13 77.336 129.114 75.928 121.008 75.928C112.901 75.928 106.885 77.336 102.96 80.152C99.0342 82.968 97.0715 87.576 97.0715 93.976C97.0715 100.035 99.0768 104.344 103.088 106.904C107.184 109.464 113.157 110.744 121.008 110.744ZM121.008 155.032C129.968 155.032 136.624 153.496 140.976 150.424C145.413 147.267 147.632 142.488 147.632 136.088C147.632 123.203 138.757 116.76 121.008 116.76C103.258 116.76 94.3835 123.203 94.3835 136.088C94.3835 142.488 96.5595 147.267 100.912 150.424C105.349 153.496 112.048 155.032 121.008 155.032Z" fill="#FFF066"/>
<path d="M121.202 281.503C131.382 291.683 147.887 291.683 158.067 281.503C168.247 271.323 168.247 254.818 158.067 244.638L124.888 211.459C122.852 209.423 119.551 209.423 117.515 211.459L84.3364 244.638L84.34 244.641C74.5265 254.848 74.6481 271.077 84.7051 281.134C94.762 291.191 110.992 291.313 121.198 281.499L121.202 281.503Z" fill="#FFF066"/>
<rect x="118.5" y="266" width="5" height="33" rx="2.5" fill="#FFF066"/>
<path d="M692.992 957.08C703.403 957.08 711.552 959.256 717.44 963.608C723.328 967.96 726.272 974.061 726.272 981.912C726.272 987.544 724.736 992.323 721.664 996.248C718.507 1000.26 714.326 1002.95 709.12 1004.31C718.763 1007.81 723.584 1014.38 723.584 1024.02C723.584 1031.7 720.982 1037.59 715.776 1041.69C710.486 1045.87 702.891 1047.96 692.992 1047.96C683.094 1047.96 675.542 1045.87 670.336 1041.69C665.046 1037.59 662.4 1031.7 662.4 1024.02C662.4 1014.38 667.222 1007.81 676.864 1004.31C671.659 1002.95 667.52 1000.26 664.448 996.248C661.291 992.323 659.712 987.544 659.712 981.912C659.712 974.061 662.656 967.96 668.544 963.608C674.432 959.256 682.582 957.08 692.992 957.08ZM692.992 1007.26C685.142 1007.26 679.211 1008.54 675.2 1011.1C671.104 1013.66 669.056 1017.97 669.056 1024.02C669.056 1030.42 671.019 1035.03 674.944 1037.85C678.87 1040.66 684.886 1042.07 692.992 1042.07C701.099 1042.07 707.115 1040.66 711.04 1037.85C714.966 1035.03 716.928 1030.42 716.928 1024.02C716.928 1017.97 714.923 1013.66 710.912 1011.1C706.816 1008.54 700.843 1007.26 692.992 1007.26ZM692.992 962.968C684.032 962.968 677.376 964.504 673.024 967.576C668.587 970.733 666.368 975.512 666.368 981.912C666.368 994.797 675.243 1001.24 692.992 1001.24C710.742 1001.24 719.616 994.797 719.616 981.912C719.616 975.512 717.44 970.733 713.088 967.576C708.651 964.504 701.952 962.968 692.992 962.968Z" fill="#FFF066"/>
<path d="M692.798 836.497C682.618 826.317 666.113 826.317 655.933 836.497C645.753 846.677 645.753 863.182 655.933 873.362L689.112 906.541C691.148 908.577 694.449 908.577 696.485 906.541L729.664 873.362L729.66 873.359C739.474 863.152 739.352 846.923 729.295 836.866C719.238 826.809 703.008 826.687 692.802 836.501L692.798 836.497Z" fill="#FFF066"/>
<rect x="695.5" y="852" width="5" height="33" rx="2.5" transform="rotate(-180 695.5 852)" fill="#FFF066"/>
</g>
<path d="M445.739 577.674C437.121 586.292 423.149 586.293 414.53 577.675L411.753 574.898L408.926 577.616C400.287 585.922 386.547 585.819 378.034 577.306C369.52 568.792 369.417 555.052 377.724 546.413L377.861 546.27L410.844 513.288C411.318 512.814 412.086 512.813 412.56 513.287L445.739 546.466C454.357 555.084 454.357 569.056 445.739 577.674Z" stroke="#FFF066" stroke-width="8"/>
<rect x="409" y="565" width="5" height="33" rx="2.5" fill="#FFF066"/>
<path d="M361.739 739.674C353.121 748.292 339.149 748.293 330.53 739.675L327.753 736.898L324.926 739.616C316.287 747.922 302.547 747.819 294.034 739.306C285.52 730.792 285.417 717.052 293.724 708.413L293.861 708.27L326.844 675.288C327.318 674.814 328.086 674.813 328.56 675.287L361.739 708.466C370.357 717.084 370.357 731.056 361.739 739.674Z" stroke="#FFF066" stroke-width="8"/>
<rect x="325" y="727" width="5" height="33" rx="2.5" fill="#FFF066"/>
<path d="M528.739 739.674C520.121 748.292 506.149 748.293 497.53 739.675L494.753 736.898L491.926 739.616C483.287 747.922 469.547 747.819 461.034 739.306C452.52 730.792 452.417 717.052 460.724 708.413L460.861 708.27L493.844 675.288C494.318 674.814 495.086 674.813 495.56 675.287L528.739 708.466C537.357 717.084 537.357 731.056 528.739 739.674Z" stroke="#FFF066" stroke-width="8"/>
<rect x="492" y="727" width="5" height="33" rx="2.5" fill="#FFF066"/>
<path d="M613.739 577.674C605.121 586.292 591.149 586.293 582.53 577.675L579.753 574.898L576.926 577.616C568.287 585.922 554.547 585.819 546.034 577.306C537.52 568.792 537.417 555.052 545.724 546.413L545.861 546.27L578.844 513.288C579.318 512.814 580.086 512.813 580.56 513.287L613.739 546.466C622.357 555.084 622.357 569.056 613.739 577.674Z" stroke="#FFF066" stroke-width="8"/>
<rect x="577" y="565" width="5" height="33" rx="2.5" fill="#FFF066"/>
<path d="M277.739 577.674C269.121 586.292 255.149 586.293 246.53 577.675L243.753 574.898L240.926 577.616C232.287 585.922 218.547 585.819 210.034 577.306C201.52 568.792 201.417 555.052 209.724 546.413L209.861 546.27L242.844 513.288C243.318 512.814 244.086 512.813 244.56 513.287L277.739 546.466C286.357 555.084 286.357 569.056 277.739 577.674Z" stroke="#FFF066" stroke-width="8"/>
<rect x="241" y="565" width="5" height="33" rx="2.5" fill="#FFF066"/>
<path d="M613.739 415.674C605.121 424.292 591.149 424.293 582.53 415.675L579.753 412.898L576.926 415.616C568.287 423.922 554.547 423.819 546.034 415.306C537.52 406.792 537.417 393.052 545.724 384.413L545.861 384.27L578.844 351.288C579.318 350.814 580.086 350.813 580.56 351.287L613.739 384.466C622.357 393.084 622.357 407.056 613.739 415.674Z" stroke="#FFF066" stroke-width="8"/>
<rect x="577" y="403" width="5" height="33" rx="2.5" fill="#FFF066"/>
<path d="M277.739 415.674C269.121 424.292 255.149 424.293 246.53 415.675L243.753 412.898L240.926 415.616C232.287 423.922 218.547 423.819 210.034 415.306C201.52 406.792 201.417 393.052 209.724 384.413L209.861 384.27L242.844 351.288C243.318 350.814 244.086 350.813 244.56 351.287L277.739 384.466C286.357 393.084 286.357 407.056 277.739 415.674Z" stroke="#FFF066" stroke-width="8"/>
<rect x="241" y="403" width="5" height="33" rx="2.5" fill="#FFF066"/>
<path d="M445.739 415.674C437.121 424.292 423.149 424.293 414.53 415.675L411.753 412.898L408.926 415.616C400.287 423.922 386.547 423.819 378.034 415.306C369.52 406.792 369.417 393.052 377.724 384.413L377.861 384.27L410.844 351.288C411.318 350.814 412.086 350.813 412.56 351.287L445.739 384.466C454.357 393.084 454.357 407.056 445.739 415.674Z" stroke="#FFF066" stroke-width="8"/>
<rect x="409" y="403" width="5" height="33" rx="2.5" fill="#FFF066"/>
<defs>
<clipPath id="clip0_31_1693">
<rect width="722" height="1022" fill="white" transform="translate(46 48)"/>
</clipPath>
</defs>
</svg>
